X:122
T:Downey's
R:polka
H:Cf #65
Z:id:hn-polka-122
M:2/4
L:1/8
K:Edor
E2 FA | Be ed | Bd/B/ AF | EF D2 |
E>E FA | Be ed | Bd/B/ AF | FE E2 :|
|: Be ef | af ed | Be ef | af d2 | 
Be ef | af ed | Bd/B/ AF | FE E2 :|

